X: 29610
T: North Cregg
R: jig
M: 6/8
K: Eminor
|:BAG GFG|EDB, B,DE|B,DE GAB|BAG ABc|
BAG GFG|EDB, B,DE|B,DE GAB|AGF ~E3:|
|:~B3 efg|fdf edB|BEE GAB|BAG ABc|
~B3 efg|fdf edB|BEE GAB|AGF ~E3:|

